public/assets/imgs/brush-icon.svg

<svg fill="none" height="191" viewBox="0 0 190 191" width="190" xmlns="http://www.w3.org/2000/svg"><path clip-rule="evenodd" d="m58.9238 58.9016 39.584-50.07568c.6182-.70116 1.7712-1.53265 3.0652-1.7623 1.077-.19128 2.699-.05983 4.764 2.00377l1.024 1.02511-18.5241 18.5251c-2.3408 2.3408-4.1162 4.647-4.6035 6.9312-.2793 1.3109-.165 2.7834.6855 4.0984.7979 1.2334 1.9629 1.8881 2.9161 2.2405 1.8115.6699 3.9951.6679 5.7656.5265 1.8935-.1511 3.8652-.514 5.5381-.9209.2549-.0621.5029-.1528.7383-.2703 1.21-.6053 3.276-1.3512 5.317-1.5614 2.117-.2178 3.435.1983 4.143.9058.546.5467.77.9936.87 1.304.1.3133.115.6224.063.9462-.12.7335-.58 1.4461-.933 1.8l-9 9c-.052.0519-.103.1053-.151.1603l-.063.074c-1.1542 1.385-2.496 3.7174-2.9003 6.4855-.4278 2.9355.2255 6.3419 3.1143 9.23 2.954 2.9542 6.559 3.5161 9.558 3.12 2.889-.3817 5.42-1.6537 6.951-2.7468.109-.0778.214-.1618.312-.2515.052-.0467.102-.0948.151-.1445l24.525-24.9795 20.003 20.0023c1.366 1.3668 3.582 1.3668 4.949 0s1.367-3.5829 0-4.9498l-55.5-55.49996c-3.536-3.536411-7.414-4.571628-10.936-3.946246-3.2797.582168-5.8041 2.520046-7.1957 4.143336l-.0889.10733-41.5 52.50004c-.0517.0656-.1015.1331-.1484.2023l-8.5 12.5c-.1357.1995-.25.4124-.3418.6355-5.4102 13.1379-5.9561 22.0626-3.7129 28.866 1.8399 5.5801 5.5361 9.3681 8.3945 12.2971.5313.545 1.0342 1.06 1.4903 1.551 2.0127 2.167 2.0176 3.58 1.8896 4.25-.1689.883-.7988 1.632-1.3174 1.991-.1611.112-.3134.237-.4541.375l-44.49996 43.5c-.10742.104-.20801.216-.30078.334-1.54883 1.962-3.364262 5.276-3.906254 9.118-.561523 3.989.267578 8.614 4.178714 12.525 7.64848 7.649 19.31148 5.531 25.31538.127l.1211-.114c.045-.044.0889-.09.1309-.136l39-43c.0811-.09.1582-.184.2295-.282.5195-.709 1.5791-1.578 2.8564-1.816 1.0586-.198 2.8858-.083 5.4278 2.3 4.5976 4.31 11.1728 7.204 17.7314 8.102 6.4166.878 13.3826-.094 18.6036-4.225l13.711-7.345c.229-.123.443-.271.64-.441l60-51.9996c.734-.6363 1.17-1.5492 1.206-2.5201.034-.971-.336-1.9127-1.024-2.5997l-9-9c-1.367-1.3668-3.583-1.3668-4.949 0-1.367 1.3669-1.367 3.5829 0 4.9498l6.342 6.342-54.613 47.3306zm34.8623-25.3342 18.5259-18.5251 24.572 24.5728-24.331 24.7821c-.835.5435-2.181 1.1663-3.574 1.3504-1.418.1872-2.647-.0842-3.693-1.13-1.111-1.1119-1.292-2.2055-1.137-3.27.17-1.1649.769-2.2724 1.266-2.9094l8.871-8.8708c1.147-1.1461 2.486-3.1335 2.893-5.625.44-2.7086-.286-5.7182-2.893-8.3248-2.892-2.8925-6.824-3.2264-9.808-2.9192-2.848.2932-5.5454 1.2276-7.3481 2.0773-1.3194.3055-2.7705.5557-4.086.6607-.3564.0285-.6904.0452-1 .0507.4239-.5323.9922-1.1695 1.7422-1.9197zm26.3599 101.0896-6.004 3.216c-.358-.608-.758-1.217-1.177-1.814-1.901-2.712-4.793-6.051-8.013-9.522-4.9559-5.343-10.9764-11.306-15.9676-16.249l-.0381-.038c-1.499-1.485-2.9053-2.877-4.1602-4.132-4.33-4.331-9.7978-10.3937-15.2324-16.4197l-.1611-.1775c-2.2637-2.5119-4.5215-5.0143-6.6875-7.3792-3.6543-3.9922-7.0635-7.6105-9.711-10.0919-.6962-.6527-1.3808-1.266-2.0351-1.8035l3.7851-5.5653zm-71.939-57.4998c-.205-.1921-.4004-.3722-.5859-.5407-3.6387 10.1164-3.4609 16.2218-2.1104 20.3177 1.2911 3.9168 3.6934 6.4068 6.5059 9.3228.6035.625 1.2256 1.271 1.8604 1.954 3.1875 3.433 4.2666 7.02 3.6357 10.325-.5586 2.926-2.3516 5.053-3.9395 6.24l-44.1396 43.149c-.92774 1.232-2.02442 3.33-2.34375 5.593-.3125 2.219.1084 4.511 2.19726 6.6 4.30669 4.306 11.53809 3.486 15.55959-.018l38.7627-42.738c1.3428-1.756 3.7851-3.78 7.0976-4.398 3.6338-.677 7.6397.458 11.4981 4.075 3.4023 3.19 8.5761 5.546 13.8935 6.273 4.5854.628 8.8424-.003 12.0114-1.886-.218-.371-.506-.82-.878-1.35-1.611-2.3-4.231-5.349-7.4117-8.778-4.8408-5.219-10.6963-11.019-15.6719-15.947l-.0088-.009-.1142-.114c-1.4951-1.48-2.9092-2.881-4.1885-4.161-4.4648-4.464-10.1445-10.762-15.6377-16.8525-2.2851-2.5333-4.5371-5.0309-6.6572-7.3461-3.6572-3.9953-6.9043-7.4332-9.335-9.7112zm-27.3955 100.4348c3.8662 0 7-3.134 7-7 0-3.865-3.1338-7-7-7s-7 3.135-7 7c0 3.866 3.1338 7 7 7zm87.8715-34.942c-.003-.002-.015-.039-.027-.104.024.074.03.106.027.104z" fill="#000" fill-rule="evenodd"/></svg>

<svg width="190" height="191" viewBox="0 0 190 191" fill="none" xmlns="http://www.w3.org/2000/svg">
<path fill-rule="evenodd" clip-rule="evenodd" d="M58.9238 58.9016L98.5078 8.82592C99.126 8.12476 100.279 7.29327 101.573 7.06362C102.65 6.87234 104.272 7.00379 106.337 9.06739L107.361 10.0925L88.8369 28.6176C86.4961 30.9584 84.7207 33.2646 84.2334 35.5488C83.9541 36.8597 84.0684 38.3322 84.9189 39.6472C85.7168 40.8806 86.8818 41.5353 87.835 41.8877C89.6465 42.5576 91.8301 42.5556 93.6006 42.4142C95.4941 42.2631 97.4658 41.9002 99.1387 41.4933C99.3936 41.4312 99.6416 41.3405 99.877 41.223C101.087 40.6177 103.153 39.8718 105.194 39.6616C107.311 39.4438 108.629 39.8599 109.337 40.5674C109.883 41.1141 110.107 41.561 110.207 41.8714C110.307 42.1847 110.322 42.4938 110.27 42.8176C110.15 43.5511 109.69 44.2637 109.337 44.6176L100.337 53.6176C100.285 53.6695 100.234 53.7229 100.186 53.7779L100.123 53.8519C98.9688 55.2369 97.627 57.5693 97.2227 60.3374C96.7949 63.2729 97.4482 66.6793 100.337 69.5674C103.291 72.5216 106.896 73.0835 109.895 72.6874C112.784 72.3057 115.315 71.0337 116.846 69.9406C116.955 69.8628 117.06 69.7788 117.158 69.6891C117.21 69.6424 117.26 69.5943 117.309 69.5446L141.834 44.5651L161.837 64.5674C163.203 65.9342 165.419 65.9342 166.786 64.5674C168.153 63.2006 168.153 60.9845 166.786 59.6176L111.286 4.11764C107.75 0.581229 103.872 -0.453988 100.35 0.171394C97.0703 0.753562 94.5459 2.69144 93.1543 4.31473L93.0654 4.42206L51.5654 56.9221C51.5137 56.9877 51.4639 57.0552 51.417 57.1244L42.917 69.6244C42.7813 69.8239 42.667 70.0368 42.5752 70.2599C37.165 83.3978 36.6191 92.3225 38.8623 99.1259C40.7022 104.706 44.3984 108.494 47.2568 111.423C47.7881 111.968 48.291 112.483 48.7471 112.974C50.7598 115.141 50.7647 116.554 50.6367 117.224C50.4678 118.107 49.8379 118.856 49.3193 119.215C49.1582 119.327 49.0059 119.452 48.8652 119.59L4.36524 163.09C4.25782 163.194 4.15723 163.306 4.06446 163.424C2.51563 165.386 0.700198 168.7 0.158206 172.542C-0.403317 176.531 0.425784 181.156 4.33692 185.067C11.9854 192.716 23.6484 190.598 29.6523 185.194L29.7734 185.08C29.8184 185.036 29.8623 184.99 29.9043 184.944L68.9043 141.944C68.9854 141.854 69.0625 141.76 69.1338 141.662C69.6533 140.953 70.7129 140.084 71.9902 139.846C73.0488 139.648 74.876 139.763 77.418 142.146C82.0156 146.456 88.5908 149.35 95.1494 150.248C101.566 151.126 108.532 150.154 113.753 146.023L127.464 138.678C127.693 138.555 127.907 138.407 128.104 138.237L188.104 86.2374C188.838 85.6011 189.274 84.6882 189.31 83.7173C189.344 82.7463 188.974 81.8046 188.286 81.1176L179.286 72.1176C177.919 70.7508 175.703 70.7508 174.337 72.1176C172.97 73.4845 172.97 75.7005 174.337 77.0674L180.679 83.4094L126.066 130.74L58.9238 58.9016ZM93.7861 33.5674L112.312 15.0423L136.884 39.6151L112.553 64.3972C111.718 64.9407 110.372 65.5635 108.979 65.7476C107.561 65.9348 106.332 65.6634 105.286 64.6176C104.175 63.5057 103.994 62.4121 104.149 61.3476C104.319 60.1827 104.918 59.0752 105.415 58.4382L114.286 49.5674C115.433 48.4213 116.772 46.4339 117.179 43.9424C117.619 41.2338 116.893 38.2242 114.286 35.6176C111.394 32.7251 107.462 32.3912 104.478 32.6984C101.63 32.9916 98.9326 33.926 97.1299 34.7757C95.8105 35.0812 94.3594 35.3314 93.0439 35.4364C92.6875 35.4649 92.3535 35.4816 92.0439 35.4871C92.4678 34.9548 93.0361 34.3176 93.7861 33.5674ZM120.146 134.657L114.142 137.873C113.784 137.265 113.384 136.656 112.965 136.059C111.064 133.347 108.172 130.008 104.952 126.537C99.9961 121.194 93.9756 115.231 88.9844 110.288L88.9463 110.25C87.4473 108.765 86.041 107.373 84.7861 106.118C80.4561 101.787 74.9883 95.7243 69.5537 89.6983L69.3926 89.5208C67.1289 87.0089 64.8711 84.5065 62.7051 82.1416C59.0508 78.1494 55.6416 74.5311 52.9941 72.0497C52.2979 71.397 51.6133 70.7837 50.959 70.2462L54.7441 64.6809L120.146 134.657ZM48.207 77.1572C48.002 76.9651 47.8066 76.785 47.6211 76.6165C43.9824 86.7329 44.1602 92.8383 45.5107 96.9342C46.8018 100.851 49.2041 103.341 52.0166 106.257C52.6201 106.882 53.2422 107.528 53.877 108.211C57.0645 111.644 58.1436 115.231 57.5127 118.536C56.9541 121.462 55.1611 123.589 53.5732 124.776L9.4336 167.925C8.50586 169.157 7.40918 171.255 7.08985 173.518C6.77735 175.737 7.19825 178.029 9.28711 180.118C13.5938 184.424 20.8252 183.604 24.8467 180.1L63.6094 137.362C64.9522 135.606 67.3945 133.582 70.707 132.964C74.3408 132.287 78.3467 133.422 82.2051 137.039C85.6074 140.229 90.7812 142.585 96.0986 143.312C100.684 143.94 104.941 143.309 108.11 141.426C107.892 141.055 107.604 140.606 107.232 140.076C105.621 137.776 103.001 134.727 99.8203 131.298C94.9795 126.079 89.124 120.279 84.1484 115.351L84.1396 115.342L84.0254 115.228C82.5303 113.748 81.1162 112.347 79.8369 111.067C75.3721 106.603 69.6924 100.305 64.1992 94.2145C61.9141 91.6812 59.6621 89.1836 57.542 86.8684C53.8848 82.8731 50.6377 79.4352 48.207 77.1572ZM20.8115 177.592C24.6777 177.592 27.8115 174.458 27.8115 170.592C27.8115 166.727 24.6777 163.592 20.8115 163.592C16.9453 163.592 13.8115 166.727 13.8115 170.592C13.8115 174.458 16.9453 177.592 20.8115 177.592ZM108.683 142.65C108.68 142.648 108.668 142.611 108.656 142.546C108.68 142.62 108.686 142.652 108.683 142.65Z" fill="black"/>
</svg>
